src/icon/ui/close-circle/icon_close-circle_xl_black.svg

<svg xmlns="http://www.w3.org/2000/svg" width="36" height="36" viewBox="0 0 36 36"><g fill="none" fill-rule="evenodd"><circle cx="18" cy="18" r="18" fill="#0B1F35" fill-rule="nonzero" opacity=".8"/><path fill="#FFF" fill-rule="nonzero" d="M20.2530483,18.131728 L25.2027958,23.0814755 C25.7885822,23.6672619 25.7885822,24.6170094 25.2027958,25.2027958 C24.6170094,25.7885822 23.6672619,25.7885822 23.0814755,25.2027958 L18.131728,20.2530483 L13.1819805,25.2027958 C12.5961941,25.7885822 11.6464466,25.7885822 11.0606602,25.2027958 C10.4748737,24.6170094 10.4748737,23.6672619 11.0606602,23.0814755 L16.0104076,18.131728 L11.0606602,13.1819805 C10.4748737,12.5961941 10.4748737,11.6464466 11.0606602,11.0606602 C11.6464466,10.4748737 12.5961941,10.4748737 13.1819805,11.0606602 L18.131728,16.0104076 L23.0814755,11.0606602 C23.6672619,10.4748737 24.6170094,10.4748737 25.2027958,11.0606602 C25.7885822,11.6464466 25.7885822,12.5961941 25.2027958,13.1819805 L20.2530483,18.131728 Z"/></g></svg>

<svg xmlns="http://www.w3.org/2000/svg" width="36" height="36" viewBox="0 0 36 36"><g fill="none" fill-rule="nonzero"><circle cx="18" cy="18" r="18" fill="#0B1F35" opacity=".8"/><path fill="#FFF" d="M20.253 18.132l4.95 4.95a1.5 1.5 0 0 1-2.122 2.12l-4.95-4.949-4.949 4.95a1.5 1.5 0 0 1-2.121-2.122l4.95-4.95-4.95-4.949a1.5 1.5 0 1 1 2.121-2.121l4.95 4.95 4.95-4.95a1.5 1.5 0 1 1 2.12 2.121l-4.949 4.95z"/></g></svg>
